X: 380
T: Dongda feiyengdui
%%abc-version 2.0
%%abcx-abcm2ps-target-version 5.9.1 (29 Sep 2008)
%%abc-creator hum2abc beta
%%abcx-conversion-date 2013/10/02 07:52:30
%%abc-edited-by Helmut Schaffrath
%%humdrum-veritas 2271295521
%%humdrum-veritas-data 3330864721
%%continueall 1
%%barnumbers 0
L: 1/16
M: 2/4
K: Bb
d'2 d'2 c'2 d' c' [I:setbarnb 1]| 
b g2 fd4 | 
d'2 d'2 c'2 d' c' | 
b8 | 
b2 b c' d'2 d' d' | 
f2 b2 c'3 b | 
g2 g f2< d2 f | 
g2 f g b2 a g | 
f8 |]  



